tools/dify_extractor/_assets/icon.svg

<svg width="40" height="40" viewBox="0 0 40 40" fill="none" xmlns="http://www.w3.org/2000/svg">
<rect width="40" height="40" fill="#0033FF"/>
<path fill-rule="evenodd" clip-rule="evenodd" d="M11.1111 12.2222C11.1111 10.3813 12.6035 8.88892 14.4445 8.88892H27.7778C28.3915 8.88892 28.8889 9.38638 28.8889 10V30C28.8889 30.6137 28.3915 31.1111 27.7778 31.1111H14.4445C12.6035 31.1111 11.1111 29.6188 11.1111 27.7778V12.2222ZM13.3334 24.6341V12.2222C13.3334 11.6086 13.8308 11.1111 14.4445 11.1111H26.6667V24.4445H14.4445C14.0549 24.4445 13.6809 24.5114 13.3334 24.6341ZM26.6667 26.6667H14.4445C13.8308 26.6667 13.3334 27.1641 13.3334 27.7778C13.3334 28.3915 13.8308 28.8889 14.4445 28.8889H26.6667V26.6667Z" fill="white"/>
<path d="M20.205 14.8977C20.3126 14.8439 20.3998 14.7567 20.4535 14.6492L21.1701 13.2161C21.3748 12.8066 21.9591 12.8066 22.1639 13.2161L22.8805 14.6492C22.9343 14.7567 23.0214 14.8439 23.1289 14.8977L24.562 15.6142C24.9716 15.819 24.9716 16.4033 24.562 16.608L23.1289 17.3246C23.0214 17.3784 22.9343 17.4655 22.8805 17.5731L22.1639 19.0062C21.9591 19.4157 21.3748 19.4157 21.1701 19.0062L20.4535 17.5731C20.3998 17.4655 20.3126 17.3784 20.205 17.3246L18.7719 16.608C18.3625 16.4033 18.3625 15.819 18.7719 15.6142L20.205 14.8977Z" fill="white"/>
<path d="M16.1973 19.6794C16.2618 19.6471 16.3141 19.5948 16.3463 19.5302L16.9244 18.3741C17.0473 18.1284 17.3979 18.1284 17.5207 18.3741L18.0988 19.5302C18.131 19.5948 18.1834 19.6471 18.2478 19.6794L19.404 20.2575C19.6497 20.3802 19.6497 20.7309 19.404 20.8537L18.2478 21.4318C18.1834 21.464 18.131 21.5164 18.0988 21.5809L17.5207 22.737C17.3979 22.9828 17.0473 22.9828 16.9244 22.737L16.3463 21.5809C16.3141 21.5164 16.2618 21.464 16.1973 21.4318L15.0411 20.8537C14.7954 20.7309 14.7954 20.3802 15.0411 20.2575L16.1973 19.6794Z" fill="white"/>
</svg>

<?xml version="1.0"?>
<svg width="40" height="40" xmlns="http://www.w3.org/2000/svg" xmlns:svg="http://www.w3.org/2000/svg">
 <defs>
  <filter color-interpolation-filters="sRGB" filterUnits="userSpaceOnUse" height="40" id="filter0_dd_9200_31668" width="40" x="0" y="0">
   <feFlood flood-opacity="0" result="BackgroundImageFix"/>
   <feColorMatrix in="SourceAlpha" result="hardAlpha" type="matrix" values="0 0 0 0 0 0 0 0 0 0 0 0 0 0 0 0 0 0 127 0"/>
   <feMorphology in="SourceAlpha" operator="erode" radius="2"/>
   <feOffset dy="2"/>
   <feGaussianBlur stdDeviation="2"/>
   <feComposite in2="hardAlpha" operator="out"/>
   <feColorMatrix type="matrix" values="0 0 0 0 0.0352941 0 0 0 0 0.0352941 0 0 0 0 0.0431373 0 0 0 0.06 0"/>
   <feBlend in2="BackgroundImageFix"/>
   <feColorMatrix in="SourceAlpha" result="hardAlpha" type="matrix" values="0 0 0 0 0 0 0 0 0 0 0 0 0 0 0 0 0 0 127 0"/>
   <feMorphology in="SourceAlpha" operator="erode" radius="2"/>
   <feOffset dy="3"/>
   <feGaussianBlur stdDeviation="5"/>
   <feComposite in2="hardAlpha" operator="out"/>
   <feColorMatrix type="matrix" values="0 0 0 0 0.0352941 0 0 0 0 0.0352941 0 0 0 0 0.0431373 0 0 0 0.08 0"/>
   <feBlend in2="effect1_dropShadow_9200_31668"/>
   <feBlend in="SourceGraphic" in2="effect2_dropShadow_9200_31668"/>
  </filter>
 </defs>
 <g class="layer">
  <title>Layer 1</title>
  <g filter="url(#filter0_dd_9200_31668)" id="svg_1">
   <rect fill="#17B26A" height="40" id="svg_2" rx="8" width="40" x="0" y="0"/>
   <path clip-rule="evenodd" d="m11.12,12.22c0,-1.83 1.48,-3.33 3.33,-3.33l13.33,0c0.6,0 1.1,0.5 1.1,1.12l0,20c0,0.62 -0.5,1.12 -1.1,1.12l-13.33,0c-1.85,0 -3.33,-1.5 -3.33,-3.33l0,-15.57zm2.22,12.42l0,-12.42c0,-0.6 0.5,-1.1 1.12,-1.1l12.22,0l0,13.33l-12.22,0c-0.4,0 -0.77,0.07 -1.12,0.18zm13.33,2.03l-12.22,0c-0.62,0 -1.12,0.5 -1.12,1.12c0,0.6 0.5,1.1 1.12,1.1l12.22,0l0,-2.22z" fill="white" fill-rule="evenodd" id="svg_4"/>
   <path d="m20.2,14.9c0.12,-0.05 0.2,-0.15 0.25,-0.25l0.72,-1.43c0.2,-0.42 0.8,-0.42 1,0l0.72,1.43c0.05,0.1 0.13,0.2 0.25,0.25l1.43,0.72c0.4,0.2 0.4,0.78 0,0.98l-1.43,0.72c-0.12,0.07 -0.2,0.15 -0.25,0.25l-0.72,1.43c-0.2,0.42 -0.8,0.42 -1,0l-0.72,-1.43c-0.05,-0.1 -0.13,-0.18 -0.25,-0.25l-1.43,-0.72c-0.4,-0.2 -0.4,-0.78 0,-0.98l1.43,-0.72z" fill="white" id="svg_5"/>
   <path d="m16.2,19.68c0.07,-0.03 0.12,-0.08 0.15,-0.15l0.57,-1.17c0.13,-0.23 0.48,-0.23 0.6,0l0.58,1.17c0.03,0.07 0.08,0.12 0.15,0.15l1.15,0.57c0.25,0.13 0.25,0.48 0,0.6l-1.15,0.58c-0.07,0.03 -0.12,0.08 -0.15,0.15l-0.58,1.15c-0.12,0.25 -0.47,0.25 -0.6,0l-0.57,-1.15c-0.03,-0.07 -0.08,-0.12 -0.15,-0.15l-1.17,-0.58c-0.23,-0.12 -0.23,-0.47 0,-0.6l1.17,-0.57z" fill="white" id="svg_6"/>
  </g>
 </g>
</svg>
